icons/folder-server.svg

<svg xmlns="http://www.w3.org/2000/svg" viewBox="0 0 16 16"><path id="folder" fill="#fbc02d" d="m6.922 3.768-.644-.536A1 1 0 0 0 5.638 3H2a1 1 0 0 0-1 1v8a1 1 0 0 0 1 1h12a1 1 0 0 0 1-1V5a1 1 0 0 0-1-1H7.562a1 1 0 0 1-.64-.232"/><path id="motive" fill="#fffde7" d="M7 7.5v2a.5.5 0 0 0 .5.5h8a.5.5 0 0 0 .5-.5v-2a.5.5 0 0 0-.5-.5h-8a.5.5 0 0 0-.5.5M10 9H8V8h2zm2 0h-1V8h1zm-5 2.5v2a.5.5 0 0 0 .5.5h8a.5.5 0 0 0 .5-.5v-2a.5.5 0 0 0-.5-.5h-8a.5.5 0 0 0-.5.5m3 1.5H8v-1h2zm2 0h-1v-1h1z"/></svg>

<svg xmlns="http://www.w3.org/2000/svg" viewBox="0 0 16 16">
<path id="folder" fill="#fbc02d" d="m6.922 3.768-.644-.536A1 1 0 0 0 5.638 3H2a1 1 0 0 0-1 1v8a1 1 0 0 0 1 1h12a1 1 0 0 0 1-1V5a1 1 0 0 0-1-1H7.562a1 1 0 0 1-.64-.232" />
<path id="motive" fill="#fffde7" d="m 7,7.5 v 2 A 0.5,0.5 0 0 0 7.5,10 h 8 A 0.5,0.5 0 0 0 16,9.5 v -2 A 0.5,0.5 0 0 0 15.5,7 h -8 A 0.5,0.5 0 0 0 7,7.5 M 10,9 H 8 V 8 h 2 z m 2,0 H 11 V 8 h 1 z m -5,2.5 v 2 A 0.5,0.5 0 0 0 7.5,14 h 8 A 0.5,0.5 0 0 0 16,13.5 v -2 A 0.5,0.5 0 0 0 15.5,11 h -8 A 0.5,0.5 0 0 0 7,11.5 M 10,13 H 8 v -1 h 2 z m 2,0 h -1 v -1 h 1 z" />
</svg>
